public/images/img-icon.svg

<svg width="48" height="48" viewBox="0 0 48 48" fill="none" xmlns="http://www.w3.org/2000/svg">
<path d="M5.5 19.6V38.5C5.5 39.5609 5.92143 40.5783 6.67157 41.3284C7.42172 42.0786 8.43913 42.5 9.5 42.5H38.5C39.5609 42.5 40.5783 42.0786 41.3284 41.3284C42.0786 40.5783 42.5 39.5609 42.5 38.5V9.5C42.5 8.43913 42.0786 7.42172 41.3284 6.67157C40.5783 5.92143 39.5609 5.5 38.5 5.5H9.5C8.43913 5.5 7.42172 5.92143 6.67157 6.67157C5.92143 7.42172 5.5 8.43913 5.5 9.5V19.6Z" stroke="#6F7172" stroke-linecap="round" stroke-linejoin="round"/>
<path d="M15.1199 24.2159C15.1199 21.0619 17.6919 18.5049 20.8659 18.5049C24.0409 18.5049 26.6139 21.0619 26.6139 24.2149M26.6139 24.2149V33.3529M26.6139 24.2149C26.6139 21.0609 29.1869 18.5049 32.3609 18.5049C35.5349 18.5049 38.1079 21.0619 38.1079 24.2149V33.3529M15.1189 18.5049V33.3529" stroke="#6F7172" stroke-linecap="round" stroke-linejoin="round"/>
<path d="M11.8141 16.2217C12.2311 16.2217 12.5691 15.8859 12.5691 15.4717C12.5691 15.0575 12.2311 14.7217 11.8141 14.7217C11.3971 14.7217 11.0591 15.0575 11.0591 15.4717C11.0591 15.8859 11.3971 16.2217 11.8141 16.2217Z" fill="#6F7172"/>
<path d="M11.814 18.5049V33.3529" stroke="#6F7172" stroke-linecap="round" stroke-linejoin="round"/>
</svg>

<?xml version="1.0" encoding="utf-8"?>
<!-- Generator: Adobe Illustrator 25.2.0, SVG Export Plug-In . SVG Version: 6.00 Build 0)  -->
<svg version="1.1" id="Слой_1" xmlns="http://www.w3.org/2000/svg" xmlns:xlink="http://www.w3.org/1999/xlink" x="0px" y="0px"
	 viewBox="0 0 48 48" style="enable-background:new 0 0 48 48;" xml:space="preserve">
<style type="text/css">
	.st0{fill:none;stroke:#000000;stroke-linecap:round;stroke-linejoin:round;}
	.st1{fill:#6F7172;stroke:#000000;stroke-miterlimit:10;}
</style>
<path class="st0" d="M5.5,19.6v18.9c0,1.1,0.4,2.1,1.2,2.8c0.8,0.8,1.8,1.2,2.8,1.2h29c1.1,0,2.1-0.4,2.8-1.2
	c0.8-0.8,1.2-1.8,1.2-2.8v-29c0-1.1-0.4-2.1-1.2-2.8c-0.8-0.8-1.8-1.2-2.8-1.2h-29c-1.1,0-2.1,0.4-2.8,1.2C5.9,7.4,5.5,8.4,5.5,9.5
	V19.6z"/>
<path class="st0" d="M15.1,24.2c0-3.2,2.6-5.7,5.7-5.7c3.2,0,5.7,2.6,5.7,5.7 M26.6,24.2v9.1 M26.6,24.2c0-3.2,2.6-5.7,5.7-5.7
	s5.7,2.6,5.7,5.7v9.1 M15.1,18.5v14.8"/>
<path class="st1" d="M11.8,16.2c0.4,0,0.8-0.3,0.8-0.8s-0.3-0.8-0.8-0.8s-0.8,0.3-0.8,0.8S11.4,16.2,11.8,16.2z"/>
<path class="st0" d="M11.8,18.5v14.8"/>
</svg>
